atec-cache-apcu/assets/img/atec-group/atec_wpmc_icon.svg

<svg height="169.83299" width="169.83299" xmlns="http://www.w3.org/2000/svg"><svg height="89" preserveAspectRatio="xMidYMid" transform="matrix(1.3283582 0 0 1.3283582 .238806 27.312907)" version="1.1" viewBox="0 0 96 67" width="128"><g transform="translate(.26 .217)"><svg height="66.567001" version="1.1" width="95.481003"><svg height="66.567001" version="1.1" width="95.481003"><svg height="66.567001" version="1.1" width="95.481003"><svg height="66.567001" version="1.1" width="95.481003"><svg height="66.567001" version="1.1" width="95.481003"><svg height="66.567001" version="1.1" width="95.481003"><svg fill="#fe5200" height="66.567001" version="1.1" viewBox="6.728 25.8 86.772 60.495" width="95.481003"><path d="m93.5 70.762-9.336-15.533h-9.335l9.335 15.533-9.335 15.533h9.335z"/><path d="m70.515 70.762-9.336 15.533h9.336l9.336-15.533-9.336-15.533h-9.336z"/><path d="m47.53 55.229 9.336 15.533-9.336 15.533h9.336l9.335-15.533-9.335-15.533z"/><path d="m44.53 84.492 8.252-13.73-8.252-13.73-3.187-5.303h25.558c-2.096-14.657-14.689-25.929-29.926-25.929-16.705 0-30.247 13.543-30.247 30.248s13.542 30.247 30.247 30.247c2.398 0 4.727-.29 6.964-.819zm-3.073-49.992-.149 11.209c-4.24-.419-8.45.889-11.543 3.489l-8.025-8.018c5.05-5.041 12.437-7.66 19.717-6.68m-25.636 17.52a21.2 21.2 0 0 1 2.165-5.849l9.044 6.146a13.2 13.2 0 0 0 -1.802 4.403 15.2 15.2 0 0 0 -.275 4.107l-8.734 1.634a21.6 21.6 0 0 1 -.398-10.441m11.393 23.736a21.67 21.67 0 0 1 -8.92-8.445l7.305-2.959a15.3 15.3 0 0 0 4.457 6.884zm5.408 1.9a22 22 0 0 1 -1.296-.315l1.64-4.074a15.2 15.2 0 0 0 4.082 1.489c2.55.531 5.081.478 7.471-.044l.385 1.919a21.57 21.57 0 0 1 -12.282 1.025"/></svg></svg></svg></svg></svg></svg></svg><path d="m0 0h95.481v66.567h-95.481z" fill="none" visibility="hidden"/></g></svg></svg>

<?xml version="1.0" encoding="UTF-8" standalone="no"?>
<svg
   height="170.83299"
   width="170.83299"
   version="1.1"
   id="svg12"
   sodipodi:docname="atec_wpmc_icon.svg"
   inkscape:version="1.4 (e7c3feb1, 2024-10-09)"
   xmlns:inkscape="http://www.inkscape.org/namespaces/inkscape"
   xmlns:sodipodi="http://sodipodi.sourceforge.net/DTD/sodipodi-0.dtd"
   xmlns="http://www.w3.org/2000/svg"
   xmlns:svg="http://www.w3.org/2000/svg">
  <defs
     id="defs12" />
  <sodipodi:namedview
     id="namedview12"
     pagecolor="#ffffff"
     bordercolor="#000000"
     borderopacity="0.25"
     inkscape:showpageshadow="2"
     inkscape:pageopacity="0.0"
     inkscape:pagecheckerboard="0"
     inkscape:deskcolor="#d1d1d1"
     inkscape:zoom="1.2247326"
     inkscape:cx="126.96649"
     inkscape:cy="83.691739"
     inkscape:window-width="1248"
     inkscape:window-height="864"
     inkscape:window-x="150"
     inkscape:window-y="151"
     inkscape:window-maximized="0"
     inkscape:current-layer="svg12" />
  <svg
     height="89"
     preserveAspectRatio="xMidYMid"
     version="1.1"
     viewBox="0 0 96 67"
     width="128"
     id="svg11"
     transform="matrix(1.3283582,0,0,1.3283582,0.23880597,27.812907)">
    <g
       transform="translate(0.26,0.217)"
       id="g10">
      <svg
         height="66.567001"
         version="1.1"
         width="95.481003"
         id="svg10">
        <svg
           height="66.567001"
           version="1.1"
           width="95.481003"
           id="svg9">
          <svg
             height="66.567001"
             version="1.1"
             width="95.481003"
             id="svg8">
            <svg
               height="66.567001"
               version="1.1"
               width="95.481003"
               id="svg7">
              <svg
                 height="66.567001"
                 version="1.1"
                 width="95.481003"
                 id="svg6">
                <svg
                   height="66.567001"
                   version="1.1"
                   width="95.481003"
                   id="svg5">
                  <svg
                     fill="#fe5200"
                     height="66.567001"
                     version="1.1"
                     viewBox="6.728 25.8 86.772 60.495"
                     width="95.481003"
                     id="svg4">
                    <path
                       d="M 93.5,70.762 84.164,55.229 h -9.335 l 9.335,15.533 -9.335,15.533 h 9.335 z"
                       id="path1" />
                    <path
                       d="m 70.515,70.762 -9.336,15.533 h 9.336 L 79.851,70.762 70.515,55.229 h -9.336 z"
                       id="path2" />
                    <path
                       d="m 47.53,55.229 9.336,15.533 -9.336,15.533 h 9.336 L 66.201,70.762 56.866,55.229 Z"
                       id="path3" />
                    <path
                       d="M 44.53,84.492 52.782,70.762 44.53,57.032 41.343,51.729 H 66.901 C 64.805,37.072 52.212,25.8 36.975,25.8 20.27,25.8 6.728,39.343 6.728,56.048 c 0,16.705 13.542,30.247 30.247,30.247 2.398,0 4.727,-0.29 6.964,-0.819 z M 41.457,34.5 41.308,45.709 c -4.24,-0.419 -8.45,0.889 -11.543,3.489 L 21.74,41.18 C 26.79,36.139 34.177,33.52 41.457,34.5 M 15.821,52.02 a 21.2,21.2 0 0 1 2.165,-5.849 l 9.044,6.146 a 13.2,13.2 0 0 0 -1.802,4.403 15.2,15.2 0 0 0 -0.275,4.107 l -8.734,1.634 A 21.6,21.6 0 0 1 15.821,52.02 m 11.393,23.736 a 21.67,21.67 0 0 1 -8.92,-8.445 l 7.305,-2.959 a 15.3,15.3 0 0 0 4.457,6.884 z m 5.408,1.9 a 22,22 0 0 1 -1.296,-0.315 l 1.64,-4.074 a 15.2,15.2 0 0 0 4.082,1.489 c 2.55,0.531 5.081,0.478 7.471,-0.044 l 0.385,1.919 a 21.57,21.57 0 0 1 -12.282,1.025"
                       id="path4" />
                  </svg>
                </svg>
              </svg>
            </svg>
          </svg>
        </svg>
      </svg>
      <path
         d="M 0,0 H 95.481 V 66.567 H 0 Z"
         fill="none"
         visibility="hidden"
         id="path10" />
    </g>
  </svg>
  <svg
     height="89"
     preserveAspectRatio="xMidYMid"
     version="1.1"
     viewBox="0 0 96 67"
     width="128"
     id="svg11-2"
     transform="matrix(1.3283582,0,0,1.3283582,0.23880597,27.812907)">
    <g
       transform="translate(0.26,0.217)"
       id="g10-2">
      <svg
         height="66.567001"
         version="1.1"
         width="95.481003"
         id="svg10-7">
        <svg
           height="66.567001"
           version="1.1"
           width="95.481003"
           id="svg9-3">
          <svg
             height="66.567001"
             version="1.1"
             width="95.481003"
             id="svg8-7">
            <svg
               height="66.567001"
               version="1.1"
               width="95.481003"
               id="svg7-9">
              <svg
                 height="66.567001"
                 version="1.1"
                 width="95.481003"
                 id="svg6-0">
                <svg
                   height="66.567001"
                   version="1.1"
                   width="95.481003"
                   id="svg5-2">
                  <svg
                     fill="#fe5200"
                     height="66.567001"
                     version="1.1"
                     viewBox="6.728 25.8 86.772 60.495"
                     width="95.481003"
                     id="svg4-3">
                    <path
                       d="M 93.5,70.762 84.164,55.229 h -9.335 l 9.335,15.533 -9.335,15.533 h 9.335 z"
                       id="path1-9" />
                    <path
                       d="m 70.515,70.762 -9.336,15.533 h 9.336 L 79.851,70.762 70.515,55.229 h -9.336 z"
                       id="path2-9" />
                    <path
                       d="m 47.53,55.229 9.336,15.533 -9.336,15.533 h 9.336 L 66.201,70.762 56.866,55.229 Z"
                       id="path3-7" />
                    <path
                       d="M 44.53,84.492 52.782,70.762 44.53,57.032 41.343,51.729 H 66.901 C 64.805,37.072 52.212,25.8 36.975,25.8 20.27,25.8 6.728,39.343 6.728,56.048 c 0,16.705 13.542,30.247 30.247,30.247 2.398,0 4.727,-0.29 6.964,-0.819 z M 41.457,34.5 41.308,45.709 c -4.24,-0.419 -8.45,0.889 -11.543,3.489 L 21.74,41.18 C 26.79,36.139 34.177,33.52 41.457,34.5 M 15.821,52.02 a 21.2,21.2 0 0 1 2.165,-5.849 l 9.044,6.146 a 13.2,13.2 0 0 0 -1.802,4.403 15.2,15.2 0 0 0 -0.275,4.107 l -8.734,1.634 A 21.6,21.6 0 0 1 15.821,52.02 m 11.393,23.736 a 21.67,21.67 0 0 1 -8.92,-8.445 l 7.305,-2.959 a 15.3,15.3 0 0 0 4.457,6.884 z m 5.408,1.9 a 22,22 0 0 1 -1.296,-0.315 l 1.64,-4.074 a 15.2,15.2 0 0 0 4.082,1.489 c 2.55,0.531 5.081,0.478 7.471,-0.044 l 0.385,1.919 a 21.57,21.57 0 0 1 -12.282,1.025"
                       id="path4-0" />
                  </svg>
                </svg>
              </svg>
            </svg>
          </svg>
        </svg>
      </svg>
      <path
         d="M 0,0 H 95.481 V 66.567 H 0 Z"
         fill="none"
         visibility="hidden"
         id="path10-3" />
    </g>
  </svg>
</svg>
